dist/images/ico/ico_download_01.svg

<svg width="24" height="24" viewBox="0 0 24 24" fill="none" xmlns="http://www.w3.org/2000/svg">
<path d="M15.9343 9.94118H14.5714V5.82353C14.5714 5.37059 14.1857 5 13.7143 5H10.2857C9.81429 5 9.42857 5.37059 9.42857 5.82353V9.94118H8.06571C7.30286 9.94118 6.91714 10.8306 7.45714 11.3494L11.3914 15.1294C11.7257 15.4506 12.2657 15.4506 12.6 15.1294L16.5343 11.3494C17.0743 10.8306 16.6971 9.94118 15.9343 9.94118ZM6 18.1765C6 18.6294 6.38571 19 6.85714 19H17.1429C17.6143 19 18 18.6294 18 18.1765C18 17.7235 17.6143 17.3529 17.1429 17.3529H6.85714C6.38571 17.3529 6 17.7235 6 18.1765Z" fill="#A4A4A4"/>
</svg>

<svg width="24" height="24" fill="none" xmlns="http://www.w3.org/2000/svg"><path d="M15.934 9.941h-1.363V5.824c0-.453-.385-.824-.857-.824h-3.428c-.472 0-.857.37-.857.824V9.94H8.066c-.763 0-1.149.89-.609 1.408l3.934 3.78a.878.878 0 001.209 0l3.934-3.78c.54-.518.163-1.408-.6-1.408zM6 18.177c0 .452.386.823.857.823h10.286c.471 0 .857-.37.857-.823 0-.453-.386-.824-.857-.824H6.857c-.471 0-.857.37-.857.823z" fill="#A4A4A4"/></svg>
